; generated by PrusaSlicer 2.5.0+linux-x64-GTK3 on 2023-03-07 at 15:21:14 UTC


;
;
; 

; external perimeters extrusion width = 0.45mm
; perimeters extrusion width = 0.45mm
; infill extrusion width = 0.45mm
; solid infill extrusion width = 0.45mm
; top infill extrusion width = 0.40mm
; first layer extrusion width = 0.42mm

M73 P0 R10
M73 Q0 S10
M201 X1000 Y1000 Z200 E8000 ; sets maximum accelerations, mm/sec^2
M203 X200 Y200 Z12 E120 ; sets maximum feedrates, mm / sec
M204 P1250 R1250 T1250 ; sets acceleration (P, T) and retract acceleration (R), mm/sec^2
M205 X8.00 Y8.00 Z0.40 E4.50 ; sets the jerk limits, mm/sec
M205 S0 T0 ; sets the minimum extruding and travel feed rate, mm/sec
M107
;TYPE:Custom
M862.3 P "MK3SMMU2S" ; printer model check
M862.1 P0.4 ; nozzle diameter check
M115 U3.11.0 ; tell printer latest fw version
G90 ; use absolute coordinates
M83 ; extruder relative mode
M104 S215 ; set extruder temp
M140 S60 ; set bed temp
M190 S60 ; wait for bed temp
M109 S215 ; wait for extruder temp
G28 W ; home all without mesh bed level
G80 ; mesh bed leveling

; Send the filament type to the MMU2.0 unit.
; E stands for extruder number, F stands for filament type (0: default; 1:flex; 2: PVA)
M403 E0 F0
M403 E1 F0
M403 E2 F0
M403 E3 F0
M403 E4 F0


;go outside print area
G1 Y-3 F1000
G1 Z0.4 F1000
; select extruder
T0
; initial load
G1 X55 E29 F1073
G1 X5 E29 F1800
G1 X55 E8 F2000
G1 Z0.3 F1000
G92 E0
M73 P1 R10
M73 Q1 S10
G1 X240 E25 F2200
G1 Y-2 F1000
G1 X55 E25 F1400
G1 Z0.2 F1000
M73 P3 R10
M73 Q3 S10
G1 X5 E4 F1000
G92 E0


M221 S95
G92 E0

; Don't change E values below. Excessive value can damage the printer.
M907 E430 ; set extruder motor current
G21 ; set units to millimeters
G90 ; use absolute coordinates
M83 ; use relative distances for extrusion
T0
M900 K0.05 ; Filament gcode LA 1.5
M900 K30 ; Filament gcode LA 1.0
G1 Z.2 F720
M107
;LAYER_CHANGE
;Z:0.2
;HEIGHT:0.2
;BEFORE_LAYER_CHANGE
G92 E0.0
;0.2


G1 E-.8 F2100
G1 Z.6 F720
G1 Z.2
;AFTER_LAYER_CHANGE
;0.2
G1 Z.6
G1 X229.5 Y125.5 F10800
G1 Z.2 F720
G1 E.8 F2100
;HEIGHT:0.2
;TYPE:Wipe tower
;WIDTH:0.5
G1  X229.500 Y138.560  E0.4964 F1200
G1  X170.500  E2.2424
M73 P4 R10
M73 Q4 S10
G1  Y125.500  E0.4964
G1  X229.500  E2.2424
G1  Y138.560 
M73 P5 R10
M73 Q5 S10
G1  X228.500 
;--------------------
; CP EMPTY GRID START
; layer #1
G1  Y138.060  E0.0190
G1  X171.000  E2.1854
G1  Y137.557  E0.0191
M73 P5 R9
G1  X229.000  E2.2044
G1  Y137.055  E0.0191
M73 P6 R9
M73 Q6 S10
G1  X171.000  E2.2044
G1  Y136.552  E0.0191
G1  X229.000  E2.2044
G1  Y136.050  E0.0191
M73 P7 R9
M73 Q7 S9
G1  X171.000  E2.2044
G1  Y135.547  E0.0191
G1  X229.000  E2.2044
G1  Y135.045  E0.0191
G1  X171.000  E2.2044
G1  Y134.542  E0.0191
M73 P8 R9
M73 Q8 S9
G1  X229.000  E2.2044
G1  Y134.040  E0.0191
G1  X171.000  E2.2044
G1  Y133.537  E0.0191
M73 P9 R9
M73 Q9 S9
G1  X229.000  E2.2044
G1  Y133.035  E0.0191
G1  X171.000  E2.2044
G1  Y132.532  E0.0191
M73 P10 R9
M73 Q10 S9
G1  X229.000  E2.2044
G1  Y132.030  E0.0191
G1  X171.000  E2.2044
G1  Y131.527  E0.0191
M73 P11 R9
M73 Q11 S9
G1  X229.000  E2.2044
G1  Y131.025  E0.0191
G1  X171.000  E2.2044
G1  Y130.522  E0.0191
M73 P12 R9
M73 Q12 S9
G1  X229.000  E2.2044
G1  Y130.020  E0.0191
G1  X171.000  E2.2044
G1  Y129.517  E0.0191
M73 P13 R9
G1  X229.000  E2.2044
G1  Y129.015  E0.0191
M73 Q13 S9
G1  X171.000  E2.2044
G1  Y128.512  E0.0191
G1  X229.000  E2.2044
M73 P14 R9
G1  Y128.010  E0.0191
M73 Q14 S9
G1  X171.000  E2.2044
G1  Y127.508  E0.0191
M73 P14 R8
G1  X229.000  E2.2044
G1  Y127.005  E0.0191
M73 P15 R8
M73 Q15 S9
G1  X171.000  E2.2044
G1  Y126.503  E0.0191
G1  X229.000  E2.2044
G1  Y126.000  E0.0191
M73 P16 R8
M73 Q16 S8
G1  X171.000  E2.2044
G1  Y125.500  E0.0190
; CP EMPTY GRID END
;------------------






G1  X170.000 
G1  Y125.000 
G1  X230.000  E2.2804
G1  Y139.060  E0.5344
M73 P17 R8
M73 Q17 S8
G1  X170.000  E2.2804
G1  Y125.000  E0.5344
G1  X169.543 
G1  Y124.543 
G1  X230.457  E2.3151
G1  Y139.517  E0.5691
M73 P18 R8
M73 Q18 S8
G1  X169.543  E2.3151
G1  Y124.543  E0.5691
M73 P19 R8
G1  X169.086 
G1  Y124.086 
G1  X230.914  E2.3499
G1  Y139.974  E0.6039
M73 Q19 S8
G1  X169.086  E2.3499
G1  Y124.086  E0.6039
M73 P20 R8
M73 Q20 S8
G1  X168.629 
G1  Y123.629 
G1  X231.371  E2.3846
G1  Y140.431  E0.6386
G1  X168.629  E2.3846
M73 P21 R8
G1  Y123.629  E0.6386
M73 Q21 S8
G1  X168.172 
G1  Y123.172 
G1  X231.828  E2.4194
G1  Y140.888  E0.6733
M73 P22 R8
G1  X168.172  E2.4194
M73 Q22 S8
G1  Y123.172  E0.6733

;WIPE_START
G1 F8640
M73 P23 R8
G1 X171.463 Y123.172 E-.76
;WIPE_END
G1 E-.04 F2100
G1 Z.6 F720
G1 X131.239 Y109.741 F10800
G1 Z.2 F720
G1 E.8 F2100
M204 S800
;TYPE:Skirt/Brim
;WIDTH:0.42
;HEIGHT:0.2
G1 F1200
G1 X130.145 Y110.994 E.05215
G1 X128.125 Y111.633 E.06643
G1 X121.875 Y111.633 E.19596
G1 X120.259 Y111.239 E.05215
G1 X119.006 Y110.145 E.05215
G1 X118.367 Y108.125 E.06643
G1 X118.367 Y101.875 E.19596
G1 X118.761 Y100.259 E.05215
M73 Q23 S8
G1 X119.855 Y99.006 E.05215
G1 X121.875 Y98.367 E.06643
G1 X128.125 Y98.367 E.19596
G1 X129.741 Y98.761 E.05215
G1 X130.994 Y99.855 E.05215
G1 X131.633 Y101.875 E.06643
G1 X131.633 Y108.125 E.19596
G1 X131.253 Y109.683 E.05027
M204 S1000
G1 X130.878 Y109.585 F10800
M204 S800
G1 F1200
G1 X130.863 Y109.645 E.00193
G1 X129.781 Y110.783 E.04923
G1 X128.125 Y111.256 E.054
G1 X121.875 Y111.256 E.19596
G1 X120.355 Y110.863 E.04923
G1 X119.217 Y109.781 E.04923
G1 X118.744 Y108.125 E.054
G1 X118.744 Y101.875 E.19596
G1 X119.137 Y100.355 E.04923
G1 X120.219 Y99.217 E.04923
G1 X121.875 Y98.744 E.054
G1 X128.125 Y98.744 E.19596
G1 X129.645 Y99.137 E.04923
G1 X130.783 Y100.219 E.04923
G1 X131.256 Y101.875 E.054
G1 X131.256 Y108.125 E.19596
G1 X130.893 Y109.527 E.04542
M204 S1000
G1 X130.519 Y109.424 F10800
M204 S800
G1 F1200
G1 X130.486 Y109.542 E.00386
G1 X129.42 Y110.556 E.04612
G1 X128.125 Y110.879 E.04186
G1 X121.875 Y110.879 E.19596
G1 X120.458 Y110.486 E.04612
G1 X119.444 Y109.42 E.04612
G1 X119.121 Y108.125 E.04186
G1 X119.121 Y101.875 E.19596
G1 X119.514 Y100.458 E.04612
M73 P24 R8
G1 X120.58 Y99.444 E.04612
G1 X121.875 Y99.121 E.04186
G1 X128.125 Y99.121 E.19596
G1 X129.542 Y99.514 E.04612
G1 X130.556 Y100.58 E.04612
G1 X130.879 Y101.875 E.04186
G1 X130.879 Y108.125 E.19596
G1 X130.535 Y109.366 E.04038
M204 S1000
G1 X130.164 Y109.255 F10800
M204 S800
M73 P24 R7
G1 F1200
G1 X130.11 Y109.432 E.00581
G1 X129.065 Y110.308 E.04278
G1 X128.125 Y110.502 E.03008
G1 X121.875 Y110.502 E.19596
G1 X120.568 Y110.11 E.04278
G1 X119.692 Y109.065 E.04278
G1 X119.498 Y108.125 E.03008
M73 Q24 S8
G1 X119.498 Y101.875 E.19596
G1 X119.89 Y100.568 E.04278
G1 X120.935 Y99.692 E.04278
G1 X121.875 Y99.498 E.03008
G1 X128.125 Y99.498 E.19596
G1 X129.432 Y99.89 E.04278
G1 X130.308 Y100.935 E.04278
G1 X130.502 Y101.875 E.03008
G1 X130.502 Y108.125 E.19596
G1 X130.181 Y109.197 E.03509
M204 S1000
; printing object Shape-Box id:0 copy 0
;WIPE_START
G1 F8640
G1 X130.11 Y109.432 E-.05662
G1 X129.065 Y110.308 E-.31505
G1 X128.125 Y110.502 E-.22155
G1 X127.403 Y110.502 E-.16679
;WIPE_END
G1 E-.04 F2100
G1 Z.6 F720
G1 X122.662 Y102.662 F10800
G1 Z.2 F720
G1 E.8 F2100
M204 S800
;TYPE:Perimeter
;WIDTH:0.419999
G1 F1200
G1 X127.338 Y102.662 E.14661
G1 X127.338 Y107.338 E.14661
G1 X122.662 Y107.338 E.14661
G1 X122.662 Y102.722 E.14473
M204 S1000
G1 X122.285 Y102.285 F10800
M204 S800
;TYPE:External perimeter
G1 F1200
G1 X127.715 Y102.285 E.17025
G1 X127.715 Y107.715 E.17025
G1 X122.285 Y107.715 E.17025
G1 X122.285 Y102.345 E.16837
M204 S1000
G1 X122.671 Y102.389 F10800
;WIPE_START
G1 F8640
G1 X125.576 Y102.309 E-.76
;WIPE_END
G1 E-.04 F2100
G1 Z.6 F720
G1 X127.225 Y103.579 F10800
G1 Z.2 F720
G1 E.8 F2100
M204 S800
;TYPE:Solid infill
;WIDTH:0.439547
G1 F1200
G1 X126.591 Y102.945 E.02957
G1 X126.03 Y102.945 E.0185
G1 X127.055 Y103.97 E.04782
G1 X127.055 Y104.531 E.0185
M73 P25 R7
G1 X125.469 Y102.945 E.07398
G1 X124.908 Y102.945 E.0185
G1 X127.055 Y105.092 E.10014
G1 X127.055 Y105.653 E.0185
G1 X124.347 Y102.945 E.1263
G1 X123.786 Y102.945 E.0185
G1 X127.055 Y106.214 E.15246
G1 X127.055 Y106.775 E.0185
G1 X123.225 Y102.945 E.17863
G1 X122.945 Y102.945 E.00925
G1 X122.945 Y103.225 E.00925
G1 X126.775 Y107.055 E.17862
G1 X126.214 Y107.055 E.0185
G1 X122.945 Y103.786 E.15246
G1 X122.945 Y104.347 E.0185
G1 X125.653 Y107.055 E.1263
G1 X125.092 Y107.055 E.0185
M73 Q25 S8
G1 X122.945 Y104.908 E.10014
G1 X122.945 Y105.469 E.0185
G1 X124.531 Y107.055 E.07397
G1 X123.97 Y107.055 E.0185
G1 X122.945 Y106.03 E.04781
G1 X122.945 Y106.591 E.0185
G1 X123.579 Y107.225 E.02957
M204 S1000
; stop printing object Shape-Box id:0 copy 0
M106 S84.15
;LAYER_CHANGE
;Z:0.4
;HEIGHT:0.2
;BEFORE_LAYER_CHANGE
G92 E0.0
;0.4


;WIPE_START
G1 F8640
G1 X122.945 Y106.591 E-.207
G1 X122.945 Y106.03 E-.12952
G1 X123.97 Y107.055 E-.33476
G1 X124.354 Y107.055 E-.08872
;WIPE_END
G1 E-.04 F2100
G1 Z.6 F720
;AFTER_LAYER_CHANGE
;0.4
M104 S205 ; set temperature
G1 X170.5 Y138.56 F10800
G1 Z.4 F720
G1 E.8 F2100
;HEIGHT:0.2
;TYPE:Wipe tower
;WIDTH:0.5
G1  X170.500 Y125.500  E0.4964 F2900
G1  X229.500  E2.2424
G1  Y138.560  E0.4964
M73 Q25 S7
G1  X170.500  E2.2424
G1  Y125.500 
M73 P26 R7
G1  X171.500 
;--------------------
; CP EMPTY GRID START
; layer #2
G1  Y138.560  E0.4964
G1  X181.000 
G1  Y125.500  E0.4964
G1  X190.500 
G1  Y138.560  E0.4964
G1  X200.000 
M73 Q26 S7
G1  Y125.500  E0.4964
G1  X209.500 
G1  Y138.560  E0.4964
G1  X219.000 
G1  Y125.500  E0.4964
G1  X228.500 
G1  Y138.560  E0.4964
; CP EMPTY GRID END
;------------------






G1  X230.000 
G1  Y139.060 
G1  X170.000  E2.2804
G1  Y125.000  E0.5344
G1  X230.000  E2.2804
G1  Y139.060  E0.5344

;WIPE_START
M73 P27 R7
G1 F8640
G1 X226.709 Y139.06 E-.76
;WIPE_END
G1 E-.04 F2100
G1 Z.8 F720
G1 X131.239 Y109.741 F10800
G1 Z.4 F720
M73 Q27 S7
G1 E.8 F2100
;TYPE:Skirt/Brim
;WIDTH:0.42
;HEIGHT:0.2
G1 F3000
G1 X130.145 Y110.994 E.05215
G1 X128.125 Y111.633 E.06643
G1 X121.875 Y111.633 E.19596
G1 X120.259 Y111.239 E.05215
G1 X119.006 Y110.145 E.05215
G1 X118.367 Y108.125 E.06643
G1 X118.367 Y101.875 E.19596
G1 X118.761 Y100.259 E.05215
G1 X119.855 Y99.006 E.05215
G1 X121.875 Y98.367 E.06643
G1 X128.125 Y98.367 E.19596
G1 X129.741 Y98.761 E.05215
G1 X130.994 Y99.855 E.05215
G1 X131.633 Y101.875 E.06643
G1 X131.633 Y108.125 E.19596
G1 X131.253 Y109.683 E.05027
G1 X130.878 Y109.585 F10800
G1 F3000
G1 X130.863 Y109.645 E.00193
G1 X129.781 Y110.783 E.04923
G1 X128.125 Y111.256 E.054
G1 X121.875 Y111.256 E.19596
G1 X120.355 Y110.863 E.04923
G1 X119.217 Y109.781 E.04923
G1 X118.744 Y108.125 E.054
G1 X118.744 Y101.875 E.19596
G1 X119.137 Y100.355 E.04923
G1 X120.219 Y99.217 E.04923
G1 X121.875 Y98.744 E.054
G1 X128.125 Y98.744 E.19596
G1 X129.645 Y99.137 E.04923
G1 X130.783 Y100.219 E.04923
G1 X131.256 Y101.875 E.054
G1 X131.256 Y108.125 E.19596
G1 X130.893 Y109.527 E.04542
G1 X130.519 Y109.424 F10800
G1 F3000
G1 X130.486 Y109.542 E.00386
G1 X129.42 Y110.556 E.04612
G1 X128.125 Y110.879 E.04186
G1 X121.875 Y110.879 E.19596
G1 X120.458 Y110.486 E.04612
G1 X119.444 Y109.42 E.04612
G1 X119.121 Y108.125 E.04186
G1 X119.121 Y101.875 E.19596
G1 X119.514 Y100.458 E.04612
G1 X120.58 Y99.444 E.04612
G1 X121.875 Y99.121 E.04186
G1 X128.125 Y99.121 E.19596
G1 X129.542 Y99.514 E.04612
G1 X130.556 Y100.58 E.04612
G1 X130.879 Y101.875 E.04186
G1 X130.879 Y108.125 E.19596
G1 X130.535 Y109.366 E.04038
G1 X130.164 Y109.255 F10800
G1 F3000
G1 X130.11 Y109.432 E.00581
G1 X129.065 Y110.308 E.04278
G1 X128.125 Y110.502 E.03008
G1 X121.875 Y110.502 E.19596
G1 X120.568 Y110.11 E.04278
G1 X119.692 Y109.065 E.04278
G1 X119.498 Y108.125 E.03008
G1 X119.498 Y101.875 E.19596
G1 X119.89 Y100.568 E.04278
G1 X120.935 Y99.692 E.04278
G1 X121.875 Y99.498 E.03008
G1 X128.125 Y99.498 E.19596
G1 X129.432 Y99.89 E.04278
G1 X130.308 Y100.935 E.04278
G1 X130.502 Y101.875 E.03008
G1 X130.502 Y108.125 E.19596
M73 P28 R7
G1 X130.181 Y109.197 E.03509
; printing object Shape-Box id:0 copy 0
;WIPE_START
G1 F8640
G1 X130.11 Y109.432 E-.05662
G1 X129.065 Y110.308 E-.31505
G1 X128.125 Y110.502 E-.22155
G1 X127.403 Y110.502 E-.16679
;WIPE_END
G1 E-.04 F2100
G1 Z.8 F720
G1 X122.507 Y102.507 F10800
G1 Z.4 F720
G1 E.8 F2100
M204 S800
;TYPE:Perimeter
;WIDTH:0.449999
G1 F1500
G1 X127.493 Y102.507 E.16876
G1 X127.493 Y107.493 E.16876
G1 X122.507 Y107.493 E.16876
G1 X122.507 Y102.567 E.16673
M204 S1000
G1 X122.1 Y102.1 F10800
M204 S800
;TYPE:External perimeter
G1 F1500
G1 X127.9 Y102.1 E.19632
G1 X127.9 Y107.9 E.19632
M73 Q28 S7
G1 X122.1 Y107.9 E.19632
G1 X122.1 Y102.16 E.19429
M204 S1000
G1 X122.486 Y102.204 F10800
;WIPE_START
G1 F8640
G1 X125.391 Y102.126 E-.76
;WIPE_END
G1 E-.04 F2100
G1 Z.8 F720
G1 X126.515 Y107.371 F10800
G1 Z.4 F720
G1 E.8 F2100
;TYPE:Solid infill
;WIDTH:0.46562
G1 F4800
G1 X127.188 Y106.698 E.03345
G1 X127.188 Y106.1 E.02101
G1 X126.1 Y107.188 E.05405
G1 X125.502 Y107.188 E.02101
G1 X127.188 Y105.502 E.08377
G1 X127.188 Y104.905 E.02101
G1 X124.905 Y107.188 E.11348
G1 X124.307 Y107.188 E.02101
G1 X127.188 Y104.307 E.1432
G1 X127.188 Y103.709 E.02101
G1 X123.709 Y107.188 E.17291
G1 X123.111 Y107.188 E.02101
G1 X127.188 Y103.111 E.20262
G1 X127.188 Y102.812 E.0105
G1 X126.889 Y102.812 E.01051
G1 X122.812 Y106.889 E.20262
G1 X122.812 Y106.291 E.02101
G1 X126.291 Y102.812 E.1729
G1 X125.693 Y102.812 E.02101
G1 X122.812 Y105.693 E.14319
G1 X122.812 Y105.095 E.02101
G1 X125.095 Y102.812 E.11347
G1 X124.497 Y102.812 E.02101
G1 X122.812 Y104.497 E.08376
G1 X122.812 Y103.9 E.02101
G1 X123.9 Y102.812 E.05405
G1 X123.302 Y102.812 E.02101
G1 X122.629 Y103.485 E.03344
; stop printing object Shape-Box id:0 copy 0
M106 S170.85
;LAYER_CHANGE
;Z:0.6
;HEIGHT:0.2
;BEFORE_LAYER_CHANGE
G92 E0.0
;0.6


;WIPE_START
G1 F8640
G1 X123.302 Y102.812 E-.21967
G1 X123.9 Y102.812 E-.13803
G1 X122.812 Y103.9 E-.35506
G1 X122.812 Y104.104 E-.04723
;WIPE_END
G1 E-.04 F2100
G1 Z.8 F720
;AFTER_LAYER_CHANGE
;0.6
G1 X229.5 Y125.5 F10800
G1 Z.6 F720
G1 E.8 F2100
;HEIGHT:0.2
;TYPE:Wipe tower
;WIDTH:0.5
G1  X229.500 Y138.560  E0.4964 F2900
G1  X170.500  E2.2424
G1  Y125.500  E0.4964
M73 P29 R7
G1  X229.500  E2.2424
G1  Y138.560 
M73 Q29 S7
G1  X228.500 
;--------------------
; CP EMPTY GRID START
; layer #3
G1  Y125.500  E0.4964
G1  X219.000 
G1  Y138.560  E0.4964
G1  X209.500 
G1  Y125.500  E0.4964
G1  X200.000 
G1  Y138.560  E0.4964
G1  X190.500 
G1  Y125.500  E0.4964
G1  X181.000 
G1  Y138.560  E0.4964
G1  X171.500 
G1  Y125.500  E0.4964
; CP EMPTY GRID END
;------------------






G1  X170.000 
M73 P30 R7
G1  Y125.000 
G1  X230.000  E2.2804
G1  Y139.060  E0.5344
M73 Q30 S7
G1  X170.000  E2.2804
G1  Y125.000  E0.5344

;WIPE_START
G1 F8640
G1 X173.291 Y125 E-.76
;WIPE_END
G1 E-.04 F2100
G1 Z1 F720
G1 X131.239 Y109.741 F10800
G1 Z.6 F720
G1 E.8 F2100
;TYPE:Skirt/Brim
;WIDTH:0.42
;HEIGHT:0.2
G1 F3000
G1 X130.145 Y110.994 E.05215
G1 X128.125 Y111.633 E.06643
G1 X121.875 Y111.633 E.19596
G1 X120.259 Y111.239 E.05215
G1 X119.006 Y110.145 E.05215
G1 X118.367 Y108.125 E.06643
G1 X118.367 Y101.875 E.19596
G1 X118.761 Y100.259 E.05215
G1 X119.855 Y99.006 E.05215
G1 X121.875 Y98.367 E.06643
G1 X128.125 Y98.367 E.19596
G1 X129.741 Y98.761 E.05215
G1 X130.994 Y99.855 E.05215
G1 X131.633 Y101.875 E.06643
G1 X131.633 Y108.125 E.19596
G1 X131.253 Y109.683 E.05027
G1 X130.878 Y109.585 F10800
G1 F3000
G1 X130.863 Y109.645 E.00193
G1 X129.781 Y110.783 E.04923
G1 X128.125 Y111.256 E.054
G1 X121.875 Y111.256 E.19596
G1 X120.355 Y110.863 E.04923
G1 X119.217 Y109.781 E.04923
G1 X118.744 Y108.125 E.054
G1 X118.744 Y101.875 E.19596
G1 X119.137 Y100.355 E.04923
G1 X120.219 Y99.217 E.04923
G1 X121.875 Y98.744 E.054
G1 X128.125 Y98.744 E.19596
G1 X129.645 Y99.137 E.04923
G1 X130.783 Y100.219 E.04923
G1 X131.256 Y101.875 E.054
G1 X131.256 Y108.125 E.19596
M73 P31 R7
G1 X130.893 Y109.527 E.04542
G1 X130.519 Y109.424 F10800
G1 F3000
G1 X130.486 Y109.542 E.00386
G1 X129.42 Y110.556 E.04612
G1 X128.125 Y110.879 E.04186
G1 X121.875 Y110.879 E.19596
G1 X120.458 Y110.486 E.04612
G1 X119.444 Y109.42 E.04612
G1 X119.121 Y108.125 E.04186
G1 X119.121 Y101.875 E.19596
G1 X119.514 Y100.458 E.04612
