; generated by PrusaSlicer 2.8.0-alpha4+141-dk-timer-linux-x64-GTK3 on 2024-06-28 at 12:20:16 UTC


;
;

;
;

;
;

;
;

;
;
; 

; external perimeters extrusion width = 0.45mm
; perimeters extrusion width = 0.45mm
; infill extrusion width = 0.45mm
; solid infill extrusion width = 0.45mm
; top infill extrusion width = 0.42mm
; first layer extrusion width = 0.50mm

; external perimeters extrusion width = 0.45mm
; perimeters extrusion width = 0.45mm
; infill extrusion width = 0.45mm
; solid infill extrusion width = 0.45mm
; top infill extrusion width = 0.42mm
; first layer extrusion width = 0.50mm

M73 P0 R75
M73 Q0 S77
M201 X4000 Y4000 Z200 E2500 ; sets maximum accelerations, mm/sec^2
M203 X300 Y300 Z40 E100 ; sets maximum feedrates, mm / sec
M204 P4000 R1200 T4000 ; sets acceleration (P, T) and retract acceleration (R), mm/sec^2
M205 X8.00 Y8.00 Z2.00 E10.00 ; sets the jerk limits, mm/sec
M205 S0 T0 ; sets the minimum extruding and travel feed rate, mm/sec

M486 S0
M486 AEmbossed text
M486 S-1
M486 S1
M486 AShape-Sphere
M486 S-1

;TYPE:Custom
M17 ; enable steppers
M862.1 P0.4 ; nozzle diameter check
M862.3 P "MK4" ; printer model check
M862.5 P2 ; g-code level check
M862.6 P "Input shaper" ; FW feature check
M862.6 P "MMU3" ; FW feature check
M115 U6.0.1+14848

; setup MMU
M708 A0x0b X5   ; extra load distance
M708 A0x0d X140 ; unload feeedrate
M708 A0x11 X140 ; load feedrate
M708 A0x14 X20  ; slow feedrate
M708 A0x1e X12  ; Pulley current to ~200mA

M555 X123.628 Y49.7989 W118.201 H109.029

G90 ; use absolute coordinates
M83 ; extruder relative mode

M140 S85 ; set bed temp
M104 S175 ; set extruder temp for bed leveling
M109 R175 ; wait for temp

M84 E ; turn off E motor

G28 ; home all without mesh bed level

G1 X42 Y-4 Z5 F4800

M302 S160 ; lower cold extrusion limit to 160C


G1 E-2 F2400 ; retraction


M84 E ; turn off E motor

G29 P9 X10 Y-4 W32 H4



G0 Z40 F10000

M190 S85 ; wait for bed temp

M107

;
; MBL
;
M84 E ; turn off E motor
G29 P1 ; invalidate mbl & probe print area
G29 P1 X0 Y0 W130 H20 C ; probe near purge place
G29 P3.2 ; interpolate mbl probes
G29 P3.13 ; extrapolate mbl outside probe area
G29 A ; activate mbl

; prepare for purge
M104 S240
G0 X0 Y-4 Z15 F4800 ; move away and ready for the purge
M109 S240

G92 E0
M569 S0 E ; set spreadcycle mode for extruder

T0
G1 E17 F1000 ; load to the nozzle

;
; Extrude purge line
;
G92 E0 ; reset extruder position
G1 E2 F2400 ; deretraction after the initial one before nozzle cleaning
G0 E7 X15 Z0.2 F500 ; purge
G0 X105 E36 F500 ; purge
G0 X115 E4 F650 ; purge
G0 X125 E4 F800 ; purge
G0 X128 Z0.05 F8000 ; wipe, move close to the bed
G0 X131 Z0.2 F8000 ; wipe, move quickly away from the bed

G92 E0
M221 S100 ; set flow to 100%
G21 ; set units to millimeters
G90 ; use absolute coordinates
M83 ; use relative distances for extrusion
T0
M900 K0.07 ; Filament gcode


M572 S0.053 ; Filament gcode


M142 S36 ; set heatbreak target temp
M107
;LAYER_CHANGE
;Z:0.2
;HEIGHT:0.2
M486 S1
G1 E-.8 F2100
M486 S-1
G1 Z1.7 F720
G1 X125 Y104.431 F18000
G1 Z.2 F720
G1 E.8 F1500
M486 S1
M204 P500
;TYPE:Perimeter
;WIDTH:0.499999
;HEIGHT:0.2
G1 F2400
G1 X125.541 Y104.824 E.02541
G1 X125.438 Y105.142 E.0127
G1 X125.334 Y105.46 E.01272
G1 X124.666 Y105.46 E.02539
G1 X124.459 Y104.824 E.02542
G1 X124.951 Y104.466 E.02313
M204 P3000
M204 T4000
G1 X124.951 Y104.466 F18000
G1 X125 Y103.866
M204 P500
;TYPE:External perimeter
G1 F2400
G1 X126.078 Y104.65 E.05066
G1 X125.872 Y105.283 E.0253
G1 X125.666 Y105.917 E.02534
G1 X124.334 Y105.917 E.05062
G1 X123.922 Y104.65 E.05064
G1 X124.951 Y103.901 E.04837
M204 P3000
G1 X124.951 Y103.901 F18000
G1 X125.24 Y105.16
M204 P500
;TYPE:Solid infill
;WIDTH:0.591415
G1 F2400
G1 X124.848 Y104.768 E.02528
M204 P3000
M486 S-1
G1 E-.16 F2100
;WIPE_START
G1 F14400
G1 X125.24 Y105.16 E-.0768
;WIPE_END
G1 E-.5632 F2100
G1 X196.429 Y137.233 Z1.563 F18000
G1 X200.01 Y138.846 Z1.623
G1 X203.59 Y140.459 Z1.666
G1 X210.752 Y143.686 Z1.7
G1 X239.75 Y156.75
G1 Z.2 F720
G1 E.8 F1500
;HEIGHT:0.2
;TYPE:Wipe tower
;WIDTH:0.5
;--------------------
; CP TOOLCHANGE START
; toolchange #1
; material : PETG -> PLA
;--------------------
M220 B
M220 S100
; CP TOOLCHANGE UNLOAD
;WIDTH:1.25
G1 X239.250 Y156.063
G4 S0
M104 S220
G4 S0
M591 S0
G4 S1.500
G1 F10543
G1 X195.322 E4.4090
G1 X180.750 E1.4626
G1 Y154.687 F7200
G1 F10543
G1 X210.105 E2.9464
G1 X239.250 E2.9252
G1 Y153.313 F7200
G1 F10543
G1 X224.467 E1.4838
G1 X180.750 E4.3878
G1 Y151.937 F7200
G1 F10543
G1 X180.961 E0.0212
G1 X224.889 E4.4090
;WIDTH:0.5
G1 E-15.0000 F6000
G1 E-28.0000
G1 E-8.0000 F3000
G1 E-4.0000 F1800
M900 K0
G1 Y150.563
G1 X180.750 E20.0000 F662
G1 X224.889 E-20.0000 F596
G1 X204.889 E50.0000 F636
G1 X224.889 E5.0000 F6360
G1 E-55.0000 F6000
G1 X180.750 E20.0000 F530
G1 X224.889 E-20.0000 F463
M73 P1 R75
M73 Q1 S77
G1 X204.889 E50.0000 F636
M73 P1 R74
M73 Q1 S76
G1 X224.889 E5.0000 F6360
G1 E-55.0000 F6000
G4 S0
M104 S230
G1 X180.750 E20.0000 F397
G1 X224.889 E-20.0000 F331
G1 E-29.0000 F2000
G1 Y151.063 F2400
G4 S0
; Filament-specific end gcode
T1
M900 K0.05 ; Filament gcode


M572 S0.036 ; Filament gcode


M142 S36 ; set heatbreak target temp

G4 S0
M591 R
G1 F18000
G1 X224.889 Y151.062
G1 Z.2 F720
G4 S0
; CP TOOLCHANGE LOAD
G1 E6.4000 F3000
G1 X180.625 E22.4000 F1186
G1 X224.889 E3.2000 F830
G1 Y151.563
; CP TOOLCHANGE WIPE
;WIDTH:1.25
G1 X237.875 E1.2339 F792
G1 X239.750 Y150.313 E0.2141
G1 X182.125 E5.4753 F900
;WIDTH:0.5
M220 R
G1 F18000
G4 S0
G92 E0
; CP TOOLCHANGE END
;------------------


G1 X180.500 Y140.500 F7200
;HEIGHT:0.2
;TYPE:Wipe tower
;WIDTH:0.5
G1 X239.500 E2.2424 F2400
G1 Y149.625 E0.3468
G1 X180.500 E2.2424
G1 Y140.500 E0.3468
G1 X239.500
G1 Y149.625
G1 X238.500
;--------------------
; CP EMPTY GRID START
; layer #1
G1 Y149.125 E0.0190
G1 X181.000 E2.1854
G1 Y148.617 E0.0193
M73 P2 R74
G1 X239.000 E2.2044
G1 Y148.109 E0.0193
M73 Q2 S76
G1 X181.000 E2.2044
G1 Y147.602 E0.0193
G1 X239.000 E2.2044
G1 Y147.094 E0.0193
G1 X181.000 E2.2044
G1 Y146.586 E0.0193
G1 X239.000 E2.2044
G1 Y146.078 E0.0193
G1 X181.000 E2.2044
G1 Y145.570 E0.0193
G1 X239.000 E2.2044
G1 Y145.063 E0.0193
G1 X181.000 E2.2044
G1 Y144.555 E0.0193
G1 X239.000 E2.2044
G1 Y144.047 E0.0193
G1 X181.000 E2.2044
G1 Y143.539 E0.0193
G1 X239.000 E2.2044
G1 Y143.031 E0.0193
G1 X181.000 E2.2044
G1 Y142.523 E0.0193
G1 X239.000 E2.2044
G1 Y142.016 E0.0193
G1 X181.000 E2.2044
G1 Y141.508 E0.0193
M73 P2 R73
G1 X239.000 E2.2044
G1 Y141.000 E0.0193
G1 X181.000 E2.2044
G1 Y140.500 E0.0190
M73 Q2 S75
; CP EMPTY GRID END
;------------------






G1 X180.000 Y140.000
G1 X240.000 E2.2804
G1 Y157.000 E0.6461
G1 X180.000 E2.2804
G1 Y140.000 E0.6461
G1 X179.543 Y139.543
G1 X240.457 E2.3151
G1 Y157.457 E0.6809
G1 X179.543 E2.3151
G1 Y139.543 E0.6809
G1 X179.086 Y139.086
G1 X240.914 E2.3499
G1 Y157.914 E0.7156
G1 X179.086 E2.3499
G1 Y139.086 E0.7156
G1 X178.629 Y138.629
G1 X241.371 E2.3846
G1 Y158.371 E0.7503
G1 X178.629 E2.3846
G1 Y138.629 E0.7503
G1 X178.172 Y138.172
G1 X241.828 E2.4194
G1 Y158.828 E0.7851
G1 X178.172 E2.4194
G1 Y138.172 E0.7851

G1 E-.7 F2100
G1 X161.281 Y110.828 Z.761 F18000
G1 X158.933 Y107.026 Z.8
G1 X126.582 Y54.653
G1 Z.2 F720
G1 E.7 F1500
M73 P3 R73
M486 S0
M204 P500
;TYPE:External perimeter
;WIDTH:0.562826
;HEIGHT:0.2
G1 F2400
G1 X126.489 Y54.683 E.00422
G1 X126.453 Y54.927 E.01066
;WIDTH:0.525537
G1 X126.418 Y55.735 E.03246
;WIDTH:0.501891
G1 X126.418 Y56.629 E.03412
;WIDTH:0.528767
G1 X126.458 Y57.531 E.03648
;WIDTH:0.57485
G1 X126.481 Y57.63 E.0045
;WIDTH:0.620933
G1 X126.504 Y57.728 E.00484
G1 X127.2 Y57.728 E.03345
;WIDTH:0.58244
G1 X127.895 Y57.728 E.03118
;WIDTH:0.543946
G1 X128.591 Y57.728 E.029
;WIDTH:0.505453
G1 X129.286 Y57.728 E.02673
;WIDTH:0.466959
G1 X129.516 Y57.756 E.00817
G1 X129.516 Y58.125 E.01301
G1 X129.327 Y58.152 E.00673
;WIDTH:0.505453
G1 X128.621 Y58.152 E.02715
;WIDTH:0.543946
G1 X127.916 Y58.152 E.02937
;WIDTH:0.58244
G1 X127.21 Y58.152 E.03167
;WIDTH:0.620933
G1 X126.504 Y58.152 E.03393
G1 X126.481 Y58.251 E.00488
;WIDTH:0.574825
G1 X126.458 Y58.35 E.0045
;WIDTH:0.528716
G1 X126.418 Y59.296 E.03825
;WIDTH:0.50989
G1 X126.429 Y60.219 E.03584
;WIDTH:0.536494
G1 X126.459 Y60.522 E.0125
;WIDTH:0.563097
G1 X126.489 Y60.825 E.01317
G1 X126.595 Y60.858 E.0048
;WIDTH:0.520529
G1 X126.7 Y60.891 E.00437
;WIDTH:0.47796
G1 X129.671 Y60.891 E.10747
G1 X129.907 Y60.916 E.00858
G1 X129.907 Y61.298 E.01382
G1 X129.807 Y61.326 E.00376
G1 X126.7 Y61.326 E.11239
;WIDTH:0.482188
G1 X126.585 Y61.322 E.0042
;WIDTH:0.522643
G1 X126.31 Y61.264 E.01121
;WIDTH:0.563097
G1 X126.035 Y61.207 E.01215
G1 X125.98 Y60.73 E.02077
;WIDTH:0.524706
G1 X125.963 Y60.208 E.02092
;WIDTH:0.509158
G1 X125.959 Y59.266 E.03652
;WIDTH:0.528716
G1 X125.973 Y58.336 E.03757
;WIDTH:0.574825
G1 X125.996 Y58.138 E.00882
;WIDTH:0.620933
G2 X125.996 Y57.743 I-1.022 J-.197 E.0191
;WIDTH:0.57485
G1 X125.973 Y57.545 E.00882
;WIDTH:0.528767
G1 X125.959 Y56.615 E.03757
;WIDTH:0.501891
G1 X125.959 Y55.707 E.03465
;WIDTH:0.525537
G1 X125.972 Y54.896 E.03255
;WIDTH:0.562826
G1 X126.033 Y54.3 E.0259
G1 X126.367 Y54.24 E.01467
;WIDTH:0.520393
G1 X126.701 Y54.181 E.01347
;WIDTH:0.477959
G1 X129.946 Y54.181 E.11738
G1 X130.181 Y54.214 E.00858
G1 X130.17 Y54.325 E.00403
;WIDTH:0.47796
G1 X130.181 Y54.584 E.00938
G1 X130.066 Y54.616 E.00432
G1 X126.701 Y54.616 E.12172
;WIDTH:0.520393
G1 X126.639 Y54.635 E.00257
M204 P3000
G1 E-.7 F2100
G1 X126.639 Y54.635 F18000
G1 X132.747 Y58.958 Z.331
G1 Z.2 F720
G1 E.7 F1500
M204 P500
;WIDTH:0.54394
G1 F2400
G1 X132.773 Y58.968 E.00116
;WIDTH:0.512514
G1 X132.887 Y59.012 E.00477
;WIDTH:0.481087
G1 X133.699 Y59.104 E.02977
;WIDTH:0.481984
G1 X134.427 Y59.08 E.02659
;WIDTH:0.507144
G1 X134.875 Y58.91 E.0185
;WIDTH:0.543213
G1 X135.079 Y58.729 E.01135
;WIDTH:0.579281
G1 X135.283 Y58.548 E.01216
G1 X135.342 Y58.37 E.00836
;WIDTH:0.545666
G1 X135.401 Y58.191 E.00788
;WIDTH:0.512051
G1 X135.516 Y57.413 E.03068
;WIDTH:0.5
G2 X135.528 Y54.595 I-126.809 J-1.948 E.10711
G1 X135.553 Y54.358 E.00906
G1 X135.954 Y54.372 E.01525
G1 X135.985 Y54.43 E.0025
G1 X135.982 Y56.95 E.09578
;WIDTH:0.50174
G1 X135.968 Y57.512 E.02145
;WIDTH:0.544815
G1 X135.887 Y58.044 E.02246
;WIDTH:0.587889
G1 X135.806 Y58.577 E.02443
G1 X135.85 Y58.602 E.00229
;WIDTH:0.548047
G1 X135.894 Y58.627 E.00213
;WIDTH:0.508205
G1 X135.938 Y58.653 E.00198
;WIDTH:0.468363
G1 X135.982 Y58.678 E.00179
;WIDTH:0.432406
G1 X136.483 Y58.945 E.01839
;WIDTH:0.45487
G1 X136.972 Y59.075 E.01733
;WIDTH:0.473616
G1 X137.572 Y59.11 E.02152
;WIDTH:0.494615
G1 X138.073 Y59.005 E.01923
;WIDTH:0.500891
G1 X138.365 Y58.854 E.01252
;WIDTH:0.509907
G1 X138.607 Y58.594 E.01379
G1 X138.72 Y58.367 E.00985
;WIDTH:0.509305
G1 X138.806 Y58.069 E.01203
;WIDTH:0.506697
G1 X138.89 Y57.439 E.02451
;WIDTH:0.49918
G1 X138.905 Y56.935 E.01913
;WIDTH:0.499912
G1 X138.905 Y54.595 E.08892
G1 X138.93 Y54.358 E.00906
G1 X139.331 Y54.372 E.01525
G1 X139.362 Y54.438 E.00277
G1 X139.361 Y56.935 E.09488
;WIDTH:0.501392
G1 X139.359 Y57.152 E.00827
M73 Q3 S75
;WIDTH:0.507521
G3 X139.231 Y58.279 I-6.392 J-.156 E.04388
;WIDTH:0.504104
G1 X139.058 Y58.733 E.01863
;WIDTH:0.508305
G1 X138.789 Y59.102 E.01767
G1 X138.486 Y59.32 E.01444
;WIDTH:0.506649
G1 X138.026 Y59.489 E.0189
;WIDTH:0.501179
G1 X137.494 Y59.541 E.02037
;WIDTH:0.47631
G1 X136.921 Y59.483 E.02075
;WIDTH:0.45487
G1 X136.425 Y59.34 E.01768
;WIDTH:0.438387
G1 X136.045 Y59.167 E.01373
;WIDTH:0.488221
G1 X135.901 Y59.081 E.00621
;WIDTH:0.538055
G1 X135.757 Y58.996 E.00688
;WIDTH:0.587889
G1 X135.613 Y58.91 E.0076
G1 X135.442 Y59.054 E.01013
;WIDTH:0.543008
G1 X135.27 Y59.198 E.00933
;WIDTH:0.498126
G1 X134.858 Y59.424 E.01779
;WIDTH:0.497114
G1 X134.358 Y59.531 E.01931
;WIDTH:0.482612
G1 X133.424 Y59.517 E.03415
;WIDTH:0.479599
G1 X132.755 Y59.434 E.02448
;WIDTH:0.51177
G1 X132.481 Y59.337 E.01133
;WIDTH:0.54394
G1 X132.206 Y59.241 E.01213
G1 X132.158 Y58.565 E.02823
;WIDTH:0.512931
G1 X132.152 Y57.806 E.02966
;WIDTH:0.500889
G1 X132.151 Y54.596 E.12224
;WIDTH:0.500045
G1 X132.17 Y54.357 E.00911
G1 X132.577 Y54.373 E.01548
G1 X132.608 Y54.463 E.00362
;WIDTH:0.500889
G1 X132.61 Y57.806 E.1273
;WIDTH:0.501009
G1 X132.61 Y57.813 E.00027
;WIDTH:0.54394
G1 X132.659 Y58.924 E.04633
G1 X132.691 Y58.936 E.00142
M204 P3000
G1 E-.7 F2100
G1 X132.691 Y58.936 F18000
G1 X142.199 Y54.645 Z.382
G1 Z.2 F720
G1 E.7 F1500
M204 P500
;WIDTH:0.545854
G1 F2400
G1 X142.215 Y54.638 E.00073
;WIDTH:0.514242
G1 X142.297 Y54.6 E.00354
;WIDTH:0.48263
G1 X142.758 Y54.513 E.01715
;WIDTH:0.471689
G1 X143.478 Y54.476 E.0257
;WIDTH:0.480211
G1 X143.991 Y54.526 E.01874
;WIDTH:0.49395
G1 X144.41 Y54.658 E.01648
;WIDTH:0.502754
G3 X145.04 Y55.098 I-1.112 J2.263 E.0295
;WIDTH:0.502464
G1 X145.287 Y55.431 E.01584
;WIDTH:0.500097
G1 X145.469 Y55.84 E.01702
;WIDTH:0.498681
G1 X145.577 Y56.303 E.01802
;WIDTH:0.500694
G1 X145.613 Y56.803 E.01908
;WIDTH:0.502091
G3 X145.479 Y57.785 I-4.318 J-.088 E.03792
G3 X145.14 Y58.476 I-2.379 J-.738 E.0295
;WIDTH:0.501673
G1 X144.839 Y58.77 E.01605
;WIDTH:0.497901
G1 X144.37 Y59.016 E.02004
;WIDTH:0.489984
G1 X143.876 Y59.118 E.01875
;WIDTH:0.473828
G1 X143.257 Y59.084 E.02221
;WIDTH:0.457503
G1 X142.799 Y58.94 E.01655
;WIDTH:0.476417
G1 X142.605 Y58.857 E.00761
;WIDTH:0.519803
G1 X142.41 Y58.774 E.0084
;WIDTH:0.563189
G1 X142.215 Y58.691 E.00917
;WIDTH:0.594664
G1 X142.187 Y58.691 E.00128
;WIDTH:0.626138
G1 X142.159 Y58.691 E.00136
G1 X142.141 Y58.618 E.00365
;WIDTH:0.589698
G1 X142.123 Y58.545 E.00342
;WIDTH:0.553257
G1 X142.104 Y58.472 E.0032
;WIDTH:0.516816
G1 X142.081 Y57.555 E.03615
;WIDTH:0.501025
G1 X142.081 Y57.548 E.00027
;WIDTH:0.500889
G1 X142.081 Y55.737 E.06896
;WIDTH:0.512036
G1 X142.097 Y55.09 E.02525
;WIDTH:0.545854
G1 X142.132 Y54.676 E.01737
G1 X142.145 Y54.67 E.0006
M204 P3000
G1 E-.7 F2100
G1 X142.145 Y54.67 F18000
G1 X142.342 Y59.178 Z.279
G1 Z.2 F720
G1 E.7 F1500
M204 P500
;WIDTH:0.533889
G1 F2400
G1 X142.292 Y59.169 E.00207
;WIDTH:0.580014
G1 X142.226 Y59.158 E.00299
;WIDTH:0.626138
G1 X142.159 Y59.147 E.00329
G1 X142.141 Y59.219 E.0036
;WIDTH:0.58984
G1 X142.123 Y59.292 E.00342
;WIDTH:0.553542
G1 X142.105 Y59.365 E.00319
;WIDTH:0.517244
G1 X142.081 Y60.285 E.0363
;WIDTH:0.500889
G1 X142.079 Y61.551 E.04821
;WIDTH:0.500034
G1 X141.995 Y61.976 E.01647
G1 X141.655 Y61.936 E.01301
G1 X141.622 Y61.551 E.01469
;WIDTH:0.500889
G1 X141.623 Y60.285 E.04821
;WIDTH:0.501033
G1 X141.623 Y60.269 E.00061
;WIDTH:0.517244
G1 X141.631 Y59.357 E.03597
;WIDTH:0.553542
G1 X141.649 Y59.211 E.00625
;WIDTH:0.58984
G1 X141.667 Y59.065 E.00669
;WIDTH:0.626138
G2 X141.667 Y58.773 I-.706 J-.146 E.01426
;WIDTH:0.589698
G1 X141.649 Y58.626 E.00673
;WIDTH:0.553257
G1 X141.631 Y58.48 E.00624
;WIDTH:0.516816
G1 X141.623 Y57.548 E.03673
;WIDTH:0.500889
G1 X141.623 Y55.737 E.06896
;WIDTH:0.501024
G1 X141.623 Y55.721 E.00061
;WIDTH:0.512036
G1 X141.628 Y55.071 E.02536
;WIDTH:0.545854
G1 X141.679 Y54.358 E.02989
G1 X142.018 Y54.211 E.01545
;WIDTH:0.501952
G1 X142.221 Y54.167 E.00793
;WIDTH:0.48263
G1 X142.865 Y54.071 E.02381
;WIDTH:0.475009
G1 X143.542 Y54.049 E.02434
;WIDTH:0.480211
G1 X144.091 Y54.099 E.02004
;WIDTH:0.49395
G1 X144.577 Y54.242 E.019
;WIDTH:0.502754
G1 X145.033 Y54.488 E.01981
G1 X145.406 Y54.821 E.01912
;WIDTH:0.502464
G1 X145.702 Y55.24 E.0196
;WIDTH:0.500097
G1 X145.911 Y55.732 E.02032
;WIDTH:0.498681
G1 X146.032 Y56.27 E.0209
;WIDTH:0.500694
G1 X146.07 Y56.819 E.02095
G1 X146.041 Y57.277 E.01747
;WIDTH:0.498239
G1 X145.953 Y57.771 E.019
;WIDTH:0.495569
G1 X145.798 Y58.238 E.01852
;WIDTH:0.497233
G1 X145.557 Y58.672 E.01875
;WIDTH:0.498802
G1 X145.222 Y59.047 E.01906
;WIDTH:0.508356
G1 X144.803 Y59.323 E.01942
G1 X144.477 Y59.45 E.01354
;WIDTH:0.486944
G1 X143.946 Y59.543 E.0199
;WIDTH:0.472788
G1 X143.39 Y59.528 E.01988
G1 X142.979 Y59.437 E.01505
;WIDTH:0.455965
G1 X142.425 Y59.192 E.0208
;WIDTH:0.487764
G1 X142.401 Y59.188 E.0009
M204 P3000
G1 E-.7 F2100
G1 X142.401 Y59.188 F18000
G1 X150.954 Y54.626 Z.369
G1 Z.2 F720
G1 E.7 F1500
M204 P500
;WIDTH:0.485004
G1 F2400
G1 X150.98 Y54.635 E.00101
;WIDTH:0.496107
